dist/img/contacts-letter.svg

<svg width="39" height="26" viewBox="0 0 39 26" fill="none" xmlns="http://www.w3.org/2000/svg">
<path d="M31.8259 5.1396L19.5008 16.0005L7.17305 5.13944C6.68218 4.70699 5.93395 4.75452 5.50166 5.24507C5.06952 5.73578 5.11657 6.484 5.60744 6.91646L18.7182 18.4673C18.9419 18.6643 19.2215 18.7628 19.501 18.7628C19.7804 18.7628 20.0602 18.6643 20.2839 18.4671L33.392 6.9163C33.8825 6.484 33.9297 5.73562 33.4975 5.24491C33.0648 4.75467 32.3168 4.70731 31.8259 5.1396Z" fill="#EB0002"/>
<path d="M34.9776 0.106445H4.02217C2.06343 0.106445 0.469727 1.69999 0.469727 3.65889V22.4477C0.469727 24.4066 2.06343 26.0001 4.02217 26.0001H34.9776C36.9363 26.0001 38.53 24.4066 38.53 22.4477V3.65889C38.53 1.70015 36.9363 0.106445 34.9776 0.106445ZM36.1617 22.4477C36.1617 23.1006 35.6306 23.6318 34.9776 23.6318H4.02217C3.36915 23.6318 2.83802 23.1006 2.83802 22.4477V3.65889C2.83802 3.00603 3.36915 2.47474 4.02217 2.47474H34.9776C35.6306 2.47474 36.1617 3.00603 36.1617 3.65889V22.4477Z" fill="#EB0002"/>
</svg>

<svg width="39" height="26" fill="none" xmlns="http://www.w3.org/2000/svg"><path d="M31.826 5.14L19.5 16 7.173 5.14a1.184 1.184 0 00-1.566 1.776l13.111 11.551a1.182 1.182 0 001.566 0l13.108-11.55a1.185 1.185 0 00-1.566-1.777z" fill="#EB0002"/><path d="M34.978.106H4.022A3.556 3.556 0 00.47 3.66v18.789A3.556 3.556 0 004.022 26h30.956a3.556 3.556 0 003.552-3.552V3.658A3.557 3.557 0 0034.978.107zm1.184 22.342c0 .653-.531 1.184-1.184 1.184H4.022a1.185 1.185 0 01-1.184-1.184V3.658c0-.652.531-1.183 1.184-1.183h30.956c.653 0 1.184.531 1.184 1.184v18.789z" fill="#EB0002"/></svg>
